X: 1277
T: Kuş Olup Uçsam
C: Nev´eser Kökdeş
O: Turkey
F: http://compmusic.upf.edu/node/140
N: segah--sarki--semai--kus_olup--neveser_kokdes
N: makam= segah
N: form= sarki
N: usul= semai = 3/4
M: 3/4
L: 1/16
K: C _1/4B _1/4e ^f 
Q: 1/4=120
%%MIDI tuningsystem comma53
B8 B2c2  | d8 B4  | c6B2 ^A2c2  | B12  | d6e2 f2g2  | \
w:  ARANAĞME  |   |   |   |   | 
f8 d4  | e6c2 B2c2  | d12  | 
w:   |   |   | 
g6f2 e2g2  | f8 d4  | e6d2 c2d2  | e12  | d2e2 f2g2 f2e2  | \
w:   |   |   |   |   | 
d8 B4  | c6B2 ^A2c2  | 
w:   |   | 
B12  | B8 B2c2  | d8 B4  | c6B2 ^A2c2  | B12  | \
w:   |  ARANAĞME  |   |   |   | 
d6e2 f2g2  | f8 d4  | e6c2 B2c2  | 
w:   |   |   | 
d12  | g6f2 e2g2  | f8 d4  | e6d2 c2d2  | e12  | \
w:   |   |   |   |   | 
d2e2 f2g2 f2e2  | d8 B4  | c6B2 ^A2c2  | 
w:   |   |   | 
B12  | d8 B4  | c8 ^A4  | B12  | G4 B4 c4  | d8 B4  | \
w:   |  Kuş  o  |  lup  uç  |  sam   |  sev gi li  |  min  di  | 
c4 d4 e2d2  | d12  | d8 z4  | e8 f4  | g8 e4  | 
w:  yâ *  rı  |  na    |   |  Sa çın  |  dan  bir   | 
d8 c4  | B8 d4  | c8 B4  | ^A6B2 c2d2  | B12  | \
w:  tel  al  |  sam  ah   |  koy sam   |  ca *  nı  |  ma    | 
B8 z4  | d8 B4  | c8 ^A4  | B12  | G4 B4 c4  | 
w:   |  Kuş  o  |  lup  uç  |  sam   |  sev gi li  | 
d8 B4  | c4 d4 e2d2  | d12  | d8 z4  | e8 f4  | \
w:  min  di  |  yâ *  rı  |  na    |   |  Sa çın  | 
g8 e4  | d8 c4  | B8 d4  | c8 B4  | ^A6B2 c2d2  | 
w:  dan  bir   |  tel  al  |  sam  ah   |  koy sam   |  ca *  nı  | 
B12  | B8 z4  | f8 d4  | f12  | ^e4 f4 g4  | a12  | \
w:  ma    |   |  Söy le  |  sem   |  sev *  gi  |  mi   | 
g8 f4  | e8 g4  | f8 e4  | d4 c4 B4  | f8 d4  | 
w:  kal bi  |  mi  aç  |  sam  o  |  na    |  Söy le  | 
f12  | ^e4 f4 g4  | a12  | g8 f4  | e8 g4  | f8 e4  | \
w:  sem   |  sev *  gi  |  mi   |  kal bi  |  mi  aç  |  sam  o  | 
d4 c4 B4  | e8 c4  | d4 e4 g4  | f8 e4  | 
w:  na    |  Aş kı  |  mın  *  çi  |  çe ği  | 
d4 c4 B4  | c8 B4  | ^A4 B4 c2d2  | B8 c4  | \
w:  ni   |  tak sam   |  ba *  şı  |  na    | 
e8 c4  | d4 e4 g4  | f8 e4  | d4 c4 B4  | 
w:  Aş kı  |  mın  *  çi  |  çe ği  |  ni   | 
c8 B4  | ^A4 B4 c2d2  | B12  | B8 B2c2  | d8 B4  | \
w:  tak sam   |  ba *  şı  |  na    |  ARANAĞME  |   | 
c6B2 ^A2c2  | B12  | d6e2 f2g2  | 
w:   |   |   | 
f8 d4  | e6c2 B2c2  | d12  | g6f2 e2g2  | f8 d4  | \
w:   |   |   |   |   | 
e6d2 c2d2  | e12  | d2e2 f2g2 f2e2  | 
w:   |   |   | 
d8 B4  | c6B2 ^A2c2  | B12  | b8 g4  | b8 g4  | \
w:   |   |   |  Söz le  |  ri  ah   | 
^a4 b4 c'4  | b12  | a4 ^g4 b4  | a8 f4  | \
w:  si tem  |  kâr   |  kıs *  ka  |  nır  be  | 
g8 e4  | 
w:  ni  ya  | 
d12  | b8 g4  | b8 g4  | ^a4 b4 c'4  | b12  | \
w:  kar    |  Söz le  |  ri  ah   |  si tem  |  kâr   | 
a4 ^g4 b4  | a8 f4  | g8 e4  | d12  | g8 f4  | \
w:  kıs *  ka  |  nır  be  |  ni  ya  |  kar    |  Naz la  | 
e8 g4  | 
w:  nır   | 
f8 e4  | d4 c4 B4  | d8 e4  | c4 B4 c4  | d12  | f12  | \
w:  yal va  |  rır   |  ah  bu   |  gü zel   |  yâr    |   | 
f8 d4  | f12  | ^e4 f4 g4  | a12  | g8 f4  | 
w:  Söy le  |  sem   |  sev *  gi  |  mi   |  kal bi  | 
e8 g4  | f8 e4  | d4 c4 B4  | f8 d4  | f12  | \
w:  mi  aç  |  sam  o  |  na    |  Söy le  |  sem   | 
^e4 f4 g4  | a12  | g8 f4  | e8 g4  | f8 e4  | \
w:  sev *  gi  |  mi   |  kal bi  |  mi  aç  |  sam  o  | 
d4 c4 B4  | 
w:  na    | 
e8 c4  | d4 e4 g4  | f8 e4  | d4 c4 B4  | c8 B4  | \
w:  Aş kı  |  mın  *  çi  |  çe ği  |  ni   |  tak sam   | 
^A4 B4 c2d2  | B8 c4  | e8 c4  | d4 e4 g4  | 
w:  ba *  şı  |  na    |  Aş kı  |  mın  *  çi  | 
f8 e4  | d4 c4 B4  | c8 B4  | ^A4 B4 c2d2  | B12  | |


